X: 1188
T: The Cuckoo (A79)
N: page A79
N: heptatonic
M: 4/4
L: 1/8
R: hornpipe
K: G
d>c|"G"B>^A B>d "C"c>B c>e|"D"(3dfd "G"g>e d>B G>F |\
"C"E>c (3cBc "G"A>G F>G|"Am"(3ABA (3GFE "D"D2 d>c|
"G"B>^A B>d "C"c>B c>e|"D"(3dfd g>e "G"d>B G>F |\
"C"E>c (3cBc "G"A>G F>G|"C"A>G F>A "G"G2::
g>a|"G"b>g (3gfg d>g f>g|b>g (3gfg d>g f>g|\
"D" c'>a (3a^ga e>a g>a| c'>a (3a^ga e>a g>a|
"G"b>g (3gfg d>g f>g| b>g (3gfg d>g f>g|\
"D"(3aba (3gag (3fgf (3efe|^c>d e>f "G"g2:|
